X: 29294
T: New Road, The
R: reel
M: 4/4
K: Dmixolydian
DE=FA d2dB|cAGE CEGE|(3DED ^FA d2Bd|cAGE EDCE|
DE=FA d2ed|~c3A Gc~c2|ABcA dged|cAGE EDD2|
afdf afdf|gece (fg)fg|afdf afbf|afeg fdd2|
afdf afdf|gece (fg)fe|defg afbf|afeg fddA|
f2de fagf|eABA g2ag|(3agf dc dfed|cAGE EDDA|
f2de fagf|eABA g2fg|afge d2ed|cAGE EDDC|

